dist/img/icons/Header/settings-popup/language.svg

<svg width="50" height="50" viewBox="0 0 50 50" fill="none" xmlns="http://www.w3.org/2000/svg">
<path opacity="0.3" d="M10.5834 16.6667H16.7292C17.3959 14.0625 18.3542 11.5625 19.6042 9.25002C15.7709 10.5625 12.5834 13.2084 10.5834 16.6667ZM15.625 25C15.625 23.5834 15.75 22.2084 15.9167 20.8334H8.87504C8.54171 22.1667 8.33337 23.5625 8.33337 25C8.33337 26.4375 8.54171 27.8334 8.87504 29.1667H15.9167C15.75 27.7917 15.625 26.4167 15.625 25ZM10.5834 33.3334C12.5955 36.8142 15.8 39.4488 19.6042 40.75C18.3468 38.4044 17.3812 35.9136 16.7292 33.3334H10.5834ZM25 8.41669C23.2709 10.9167 21.9167 13.6875 21.0209 16.6667H28.9792C28.0834 13.6875 26.7292 10.9167 25 8.41669ZM39.4167 16.6667C37.3983 13.1911 34.1961 10.5584 30.3959 9.25002C31.6459 11.5625 32.6042 14.0625 33.2709 16.6667H39.4167ZM25 41.5834C26.7292 39.0834 28.0834 36.3125 28.9792 33.3334H21.0209C21.9167 36.3125 23.2709 39.0834 25 41.5834ZM30.3959 40.75C34.1961 39.4417 37.3983 36.8089 39.4167 33.3334H33.2709C32.6188 35.9136 31.6533 38.4044 30.3959 40.75ZM41.125 20.8334H34.0834C34.25 22.2084 34.375 23.5834 34.375 25C34.375 26.4167 34.25 27.7917 34.0834 29.1667H41.125C41.4584 27.8334 41.6667 26.4375 41.6667 25C41.6667 23.5625 41.4584 22.1667 41.125 20.8334ZM20.125 20.8334C19.9375 22.1875 19.7917 23.5834 19.7917 25C19.7917 26.4167 19.9375 27.7917 20.125 29.1667H29.875C30.0625 27.7917 30.2084 26.4167 30.2084 25C30.2084 23.5834 30.0625 22.1875 29.875 20.8334H20.125Z" fill="#651FFF"/>
<path d="M24.9791 4.16669C13.4791 4.16669 4.16663 13.5 4.16663 25C4.16663 36.5 13.4791 45.8334 24.9791 45.8334C36.5 45.8334 45.8333 36.5 45.8333 25C45.8333 13.5 36.5 4.16669 24.9791 4.16669ZM39.4166 16.6667H33.2708C32.6188 14.0864 31.6532 11.5956 30.3958 9.25002C34.196 10.5584 37.3982 13.1911 39.4166 16.6667ZM25 8.41669C26.7291 10.9167 28.0833 13.6875 28.9791 16.6667H21.0208C21.9166 13.6875 23.2708 10.9167 25 8.41669ZM8.87496 29.1667C8.54163 27.8334 8.33329 26.4375 8.33329 25C8.33329 23.5625 8.54163 22.1667 8.87496 20.8334H15.9166C15.75 22.2084 15.625 23.5834 15.625 25C15.625 26.4167 15.75 27.7917 15.9166 29.1667H8.87496ZM10.5833 33.3334H16.7291C17.3958 35.9375 18.3541 38.4375 19.6041 40.75C15.7999 39.4488 12.5954 36.8142 10.5833 33.3334ZM16.7291 16.6667H10.5833C12.5954 13.1858 15.7999 10.5512 19.6041 9.25002C18.3467 11.5956 17.3812 14.0864 16.7291 16.6667ZM25 41.5834C23.2708 39.0834 21.9166 36.3125 21.0208 33.3334H28.9791C28.0833 36.3125 26.7291 39.0834 25 41.5834ZM29.875 29.1667H20.125C19.9375 27.7917 19.7916 26.4167 19.7916 25C19.7916 23.5834 19.9375 22.1875 20.125 20.8334H29.875C30.0625 22.1875 30.2083 23.5834 30.2083 25C30.2083 26.4167 30.0625 27.7917 29.875 29.1667ZM30.3958 40.75C31.6458 38.4375 32.6041 35.9375 33.2708 33.3334H39.4166C37.3982 36.8089 34.196 39.4417 30.3958 40.75ZM34.0833 29.1667C34.25 27.7917 34.375 26.4167 34.375 25C34.375 23.5834 34.25 22.2084 34.0833 20.8334H41.125C41.4583 22.1667 41.6666 23.5625 41.6666 25C41.6666 26.4375 41.4583 27.8334 41.125 29.1667H34.0833Z" fill="#651FFF"/>
</svg>

<svg width="50" height="50" fill="none" xmlns="http://www.w3.org/2000/svg"><path opacity=".3" d="M10.583 16.667h6.146c.667-2.605 1.625-5.105 2.875-7.417a16.64 16.64 0 0 0-9.02 7.417ZM15.625 25c0-1.417.125-2.792.292-4.167H8.875c-.333 1.334-.542 2.73-.542 4.167 0 1.438.209 2.833.542 4.167h7.042c-.167-1.375-.292-2.75-.292-4.167Zm-5.042 8.333a16.64 16.64 0 0 0 9.021 7.417 32.605 32.605 0 0 1-2.875-7.417h-6.146ZM25 8.417a29.348 29.348 0 0 0-3.98 8.25h7.96A29.345 29.345 0 0 0 25 8.417Zm14.417 8.25a16.73 16.73 0 0 0-9.021-7.417c1.25 2.313 2.208 4.813 2.875 7.417h6.146ZM25 41.583c1.73-2.5 3.083-5.27 3.98-8.25h-7.96c.897 2.98 2.25 5.75 3.98 8.25Zm5.396-.833a16.73 16.73 0 0 0 9.02-7.417h-6.145a32.61 32.61 0 0 1-2.875 7.417Zm10.729-19.917h-7.042c.167 1.375.292 2.75.292 4.167 0 1.417-.125 2.792-.292 4.167h7.042c.333-1.334.542-2.73.542-4.167 0-1.438-.209-2.833-.542-4.167Zm-21 0c-.188 1.355-.333 2.75-.333 4.167 0 1.417.145 2.792.333 4.167h9.75c.188-1.375.333-2.75.333-4.167 0-1.417-.145-2.813-.333-4.167h-9.75Z" fill="#651FFF"/><path d="M24.98 4.167C13.48 4.167 4.166 13.5 4.166 25c0 11.5 9.312 20.833 20.812 20.833C36.5 45.833 45.833 36.5 45.833 25c0-11.5-9.333-20.833-20.854-20.833Zm14.437 12.5H33.27a32.604 32.604 0 0 0-2.875-7.417 16.73 16.73 0 0 1 9.02 7.417ZM25 8.417c1.73 2.5 3.083 5.27 3.98 8.25h-7.96c.897-2.98 2.25-5.75 3.98-8.25ZM8.875 29.167c-.333-1.334-.542-2.73-.542-4.167 0-1.438.209-2.833.542-4.167h7.042c-.167 1.375-.292 2.75-.292 4.167 0 1.417.125 2.792.292 4.167H8.875Zm1.708 4.166h6.146c.667 2.605 1.625 5.105 2.875 7.417a16.64 16.64 0 0 1-9.02-7.417Zm6.146-16.666h-6.146a16.64 16.64 0 0 1 9.021-7.417 32.608 32.608 0 0 0-2.875 7.417ZM25 41.583a29.347 29.347 0 0 1-3.98-8.25h7.96a29.349 29.349 0 0 1-3.98 8.25Zm4.875-12.416h-9.75c-.188-1.375-.333-2.75-.333-4.167 0-1.417.145-2.813.333-4.167h9.75c.188 1.355.333 2.75.333 4.167 0 1.417-.145 2.792-.333 4.167Zm.52 11.583a32.589 32.589 0 0 0 2.876-7.417h6.146a16.73 16.73 0 0 1-9.021 7.417Zm3.688-11.583c.167-1.375.292-2.75.292-4.167 0-1.417-.125-2.792-.292-4.167h7.042c.333 1.334.542 2.73.542 4.167 0 1.438-.209 2.833-.542 4.167h-7.042Z" fill="#651FFF"/></svg>
